X:1
T:Czerny - The Art Oof Finger Dexterity
T:Czerny - The Art Of Finger Dexterity
T:2. The Passing Under Of The Thumb
T:C.Czerny, Op. 740, Book 1
T:--
C:C.Czerny, Op. 740, Book 1
Z:--
%%score { 1 | 2 }
L:1/8
Q:3/4=40
M:3/4
K:G
V:1 treble nm="Piano" snm="Pno."
V:2 bass 
V:1
"G"!p! G/B/d/g/ b/d'/g'/d'/ b/g/d/B/ | G/B/d/g/ b/d'/g'/d'/ b/g/d/B/ | %2
 G/B/d/g/ b/d'/g'/d'/ b/g/d/B/ | G/B/d/g/ B/d/g/b/ G/B/d/g/ |"D" A/d/f/a/ d'/f'/a'/f'/ d'/a/f/d/ | %5
 A/d/f/a/ d'/f'/a'/f'/ d'/a/f/d/ | A/d/f/a/ d'/f'/a'/f'/ d'/a/f/d/ | %7
"D7" A/d/f/a/ c/f/a/c'/ A/d/f/a/ |"G" B/d/g/b/!8va(! d'/g'/b'/g'/ d'/b/g/d/ | %9
"_cresc." B/d/g/b/ d'/g'/b'/g'/ d'/b/g/d/ | c/f/a/c'/ f'/a'/c''/a'/ f'/c'/a/f/ | %11
"D7/A" c/f/a/c'/ f'/a'/c''/a'/ f'/c'/a/f/ |"G/B" d/g/b/d'/ g'/b'/d''/b'/ g'/d'/b/g/ | %13
 d/g/b/d'/ g'/b'/d''/b'/ g'/d'/b/g/ |"C#dim"!f! e/g/_b/e'/ g'/_b'/e''/b'/ g'/e'/b/g/ | %15
 e/g/_b/e'/ g'/_b'/e''/b'/ g'/e'/b/g/ |"D" d/f/a/d'/ f'/a'/d''/a'/ f'/d''/a'/f'/ | %17
"_dim." d'/a'/f'/d'/ a/f'/d'/a/ f/d'/a/f/!8va)! | d/a/f/d/ A/f/d/A/ F/d/A/F/ | %19
"A7"!p! G/^c/A/G/ E/A/G/E/ ^C/G/E/C/ |"D"!f! D/F/A/d/ f/a/d'/a/ f/a/d'/a/ | %21
"_dim." f/a/f/d/ A/f/d/A/ F/d/A/F/ | D/A/F/D/ A,/F/D/A,/[I:staff +1] F,/D/A,/F,/ | %23
"A7"!p! G,/^C/A,/G,/ E,/A,/G,/E,/ ^C,/G,/E,/C,/ |"D" D,[I:staff -1] z z4 | !arpeggio![Adfa] z z4 | %26
"_cresc." !arpeggio![dfad'] z z4 |"D7" !arpeggio![=cdfa=c'] z z4 |"B" !arpeggio![B^dfb] z z4 | %29
"B" !arpeggio![^dfb^d'] z z4 | !arpeggio![fbd'f'] z z4 | !arpeggio![A^dfa] z z4 | %32
"Em" !arpeggio![GBeg] z z4 | !arpeggio![Begb] z z4 | !arpeggio![egbe'] z z4 | %35
!8va(! !arpeggio![gbe'g']!8va)! z z4 |"F#"!8va(! !arpeggio![fa^c'f']!8va)! z z4 | %37
!8va(! !arpeggio![^a^c'f'^a']!8va)! z z4 |!8va(! !arpeggio![^c'f'^a'^c'']!8va)! z z4 | %39
!8va(! !arpeggio![e^a^c'e']!8va)! z z4 |"Bm" B,/D/F/B/ d/f/b/f/ d/B/F/D/ | %41
"G/B" D/G/B/d/ g/b/d'/b/ g/d/B/G/ |"Am7" =C/E/G/c/ e/g/c'/g/ e/c/G/E/ | %43
"D7" C/F/A/c/ f/a/c'/a/ f/c/A/F/ |"B7/A" B,/^D/F/B/ ^d/f/b/f/ d/B/F/D/ | %45
"Em/G" B,/E/G/B/ e/g/b/g/ e/B/G/E/ |"F#dim" A/c/e/a/ c'/e'/a'/e'/ c'/a/e/c/ | %47
"B7" A/B/^d/a/ b/^d'/a'/d'/ b/a/d/B/ |"Em" G/B/e/g/ b/e'/g'/e'/ b/g/e/B/ | %49
"C/E" G/c/e/g/ c'/e'/g'/e'/ c'/g/e/c/ |"Dm7" =F/A/c/=f/ a/c'/=f'/c'/ a/f/c/A/ | %51
"G7" =F/B/d/=f/ b/d'/=f'/d'/ b/f/d/B/ |"C"!ff! E/G/c/e/ g/c'/e'/c'/ g/e/c/G/ | %53
"C#dim" E/G/_B/e/ g/_b/e'/b/ g/e/B/G/ |"Gm/D" D/G/_B/d/ g/_b/d'/b/ g/b/g/d/ | %55
"Ebdim" ^c'/_b/g/^c/ c'/b/g/c/ c'/b/g/c/ |"G/D" [dg=bd']6 |"G/D" [Bdgb]6 | [GBdg]6 | %59
"D7"!>(! [FAdf]6!>)! |"G"!p! B,/D/G/B/ d/g/b/g/ d/B/G/D/ | B,/D/G/B/ d/g/b/g/ d/B/G/D/ | %62
"D7/A" C/F/A/c/ f/a/c'/a/ f/c/A/F/ |"_cresc." C/F/A/c/ f/a/c'/a/ f/c/A/F/ | %64
"G7/B" D/=F/G/d/ =f/g/d'/g/ f/d/G/F/ | D/=F/G/d/ =f/g/d'/g/ f/d/G/F/ | %66
"C" E/G/c/e/ g/c'/e'/c'/ g/e/c/G/ | E/G/c/e/ g/c'/e'/c'/ g/e/c/G/ | %68
"C#dim"!f! E/G/_B/e/ g/_b/e'/b/ g/e/B/G/ | E/G/_B/e/ g/_b/e'/b/ g/e/B/G/ | %70
"G/D" D/G/=B/d/ g/=b/d'/b/ g/d/B/d/ | G/B/d/g/ b/d'/g'/d'/ b/g/d/g/ | %72
!8va(! B/d/g/b/ d'/g'/b'/g'/ d'/b/g/b/ | d/g/b/d'/ g'/b'/d''/b'/ g'/d'/g'/b'/ | %74
!ff! d''/!>(!c''/a'/f'/!8va)! d'/c'/a/f/ d'/c'/a/f/!>)! | d/c/A/F/ d/c/A/F/ D/C/A,/F,/ | %76
 G, z z2 z2 | [=FBd=f]6 | [EGce]6 | [_EGc_e]6 | [DGBd]6 |"_dim." [=FGd]6 | [EGc]6 | [_EGc]6 | %84
 [DGB]6 |!p! [DBd]6 | [DGB]6 | [DBd]6 | [DGB]2 z4 |!ff! [Bdgb]2 z4 | [G,B,DG]2 z4 |] %91
V:2
 !arpeggio![G,,B,,D,G,] z z2 z2 | !arpeggio![G,B,D] z z2 z2 | !arpeggio![G,,B,,D,G,] z z2 z2 | %3
 !arpeggio![G,B,D] z z2 z2 | !arpeggio![D,,F,,A,,D,] z z2 z2 | !arpeggio![D,F,A,D] z z2 z2 | %6
 !arpeggio![D,,F,,A,,D,] z z2 z2 | !arpeggio![D,F,A,D] z z2 z2 | !arpeggio![G,,B,,D,G,] z z2 z2 | %9
 !arpeggio![G,B,DG] z z2 z2 | !arpeggio![A,,D,D,F,] z z2 z2 | !arpeggio![A,DDF] z z2 z2 | %12
 !arpeggio![B,,D,G,] z z2 z2 | !arpeggio![B,DG] z z2 z2 | !arpeggio![^C,E,G,_B,] z z2 z2 | %15
[K:treble] !arpeggio![^CEG_B] z z2 z2 |[K:bass] [D,F,A,D]6 | (D,2 F,2 A,2 | D4 D,2) | (A,4 A,,2) | %20
 [D,,F,,A,,D,]6 | (D,,2 F,,2 A,,2 | D,4 D,,2) | (A,,4 A,,,2) | %24
 D,,/F,,/A,,/D,/ F,/A,/D/A,/ F,/D,/A,,/F,,/ | D,,/F,,/A,,/D,/ F,/A,/D/A,/ F,/D,/A,,/F,,/ | %26
 D,,/F,,/A,,/D,/ F,/A,/D/A,/ F,/D,/A,,/F,,/ | D,,/F,,/A,,/D,/ F,/A,/D/A,/ F,/D,/A,,/F,,/ | %28
 B,,,/^D,,/F,,/B,,/ ^D,/F,/B,/F,/ D,/B,,/F,,/D,,/ | %29
 B,,,/^D,,/F,,/B,,/ ^D,/F,/B,/F,/ D,/B,,/F,,/D,,/ | %30
 B,,,/^D,,/F,,/B,,/ ^D,/F,/B,/F,/ D,/B,,/F,,/D,,/ | %31
 B,,,/^D,,/F,,/B,,/ ^D,/F,/B,/F,/ D,/B,,/F,,/D,,/ | E,,/G,,/B,,/E,/ G,/B,/E/B,/ G,/E,/B,,/G,,/ | %33
 E,,/G,,/B,,/E,/ G,/B,/E/B,/ G,/E,/B,,/G,,/ | E,,/G,,/B,,/E,/ G,/B,/E/B,/ G,/E,/B,,/G,,/ | %35
 E,,/G,,/B,,/E,/ G,/B,/E/B,/ G,/E,/B,,/G,,/ | F,,/^A,,/^C,/F,/ ^A,/^C/F/C/ A,/F,/C,/A,,/ | %37
 F,,/^A,,/^C,/F,/ ^A,/^C/F/C/ A,/F,/C,/A,,/ | F,,/^A,,/^C,/F,/ ^A,/^C/F/C/ A,/F,/C,/A,,/ | %39
 F,,/^A,,/^C,/F,/ ^A,/^C/F/C/ A,/F,/C,/A,,/ | [B,,D,F,B,]6 |[K:treble] [B,DG]6 | [A,EG]6 | %43
 [A,DF]6 | [A,^DF]6 |[K:bass] !>![G,B,E]6 | !>![F,A,E]6 | !>![F,B,^D]6 | !>![E,B,E]6 | %49
[K:bass] !>![E,G,=C]6 | !>![D,A,C]6 | !>![G,,B,,D,G,]6 | [C,,G,,C,]6 | [^C,,G,,^C,]6 | %54
 [D,,G,,D,]6 | [_E,,G,,_E,]4 [E,,G,,E,]2 | D,,/G,,/B,,/D,/ G,/B,/D/B,/ G,/D,/B,,/G,,/ | %57
 D,,/G,,/B,,/D,/ G,/B,/D/B,/ G,/D,/B,,/G,,/ | D,,/G,,/B,,/D,/ G,/B,/D/B,/ G,/D,/B,,/G,,/ | %59
 D,,/A,,/C,/D,/ A,/C/D/C/ A,/D,/C,/A,,/ | G,,/B,,/D,/G,/ B,/D/G/D/ B,/G,/D,/B,,/ | %61
 G,,/B,,/D,/G,/ B,/D/G/D/ B,/G,/D,/B,,/ | %62
 A,,/C,/F,/A,/[I:staff -1] C/F/A/F/[I:staff +1] C/A,/F,/C,/ | %63
 A,,/C,/F,/A,/[I:staff -1] C/F/A/F/[I:staff +1] C/A,/F,/C,/ | %64
 B,,/D,/G,/B,/[I:staff -1] D/G/B/G/[I:staff +1] D/B,/G,/D,/ | %65
 B,,/D,/G,/B,/[I:staff -1] D/G/B/G/[I:staff +1] D/B,/G,/D,/ | %66
 C,/E,/G,/C/[I:staff -1] E/G/c/G/[I:staff +1] E/C/G,/E,/ | %67
 C,/E,/G,/C/[I:staff -1] E/G/c/G/[I:staff +1] E/C/G,/E,/ | [^C,G,_B,^C]4 [^C,,C,]2 | %69
 [^C,,^C,]4 [C,,C,]2 | [D,,G,,=B,,D,]6- | [D,,G,,B,,D,]6 | (B,,,2 G,,2 B,,2 | D,2 B,,2 G,,2) | %74
 [D,,F,,A,,D,]6- | [D,,F,,A,,D,]2 [D,,D,]2 [D,,D,]2 | %76
!p! G,,,/B,,,/D,,/G,,/ B,,/D,/G,/D,/ B,,/G,,/D,,/B,,,/ | %77
 G,,,/B,,,/D,,/G,,/ B,,/D,/G,/D,/ B,,/G,,/D,,/B,,,/ | %78
 G,,,/C,,/E,,/G,,/ C,/E,/G,/E,/ C,/G,,/E,,/C,,/ | %79
 G,,,/C,,/_E,,/G,,/ C,/_E,/G,/E,/ C,/G,,/E,,/C,,/ | %80
 G,,,/B,,,/D,,/G,,/ B,,/D,/G,/D,/ B,,/G,,/D,,/B,,,/ | %81
 G,,,/B,,,/D,,/G,,/ B,,/D,/G,/D,/ B,,/G,,/D,,/B,,,/ | %82
 G,,,/C,,/E,,/G,,/ C,/E,/G,/E,/ C,/G,,/E,,/C,,/ | %83
 G,,,/C,,/_E,,/G,,/ C,/_E,/G,/E,/ C,/G,,/E,,/C,,/ | %84
 G,,,/B,,,/D,,/G,,/ B,,/D,/G,/D,/ B,,/G,,/D,,/B,,,/ | %85
 G,,,/B,,,/D,,/G,,/ B,,/D,/G,/D,/ B,,/G,,/D,,/B,,,/ | %86
 G,,,/B,,,/D,,/G,,/ B,,/D,/G,/D,/ B,,/G,,/D,,/B,,,/ | %87
 G,,,/B,,,/D,,/G,,/ B,,/D,/G,/D,/ B,,/G,,/D,,/B,,,/ | G,,,2 z4 | [G,,B,,D,G,]2 z4 | %90
 [G,,,G,,]2 z4 |] %91

